X:41
T:Aoibhneas Eilis Ni Cheallaigh
R:slip jig
S:lunasa merry sister of fate
M:9/8
L:1/8
Q:3/8=130
K:Edor
|"Em"E3 "Em"EFE "Em"EDB,|"Em"E2 B,"Bm"D2 B, "D"A,B,D|"Em"~E3 "Em"EFE "Em"EDB,|
|"Bm"DED "Bm"D2 B, "D"A,B,D:||
|:"Em"G2 E "Bm"FGD "Em"EDB,|"Em"G2 E "Bm"FDB, "D"A,B,D|"Em"GFE "Bm"FED "Em"EDB,|"Bm"DED "Bm"D2 B, "D"A,B,D:||
